X: 1557
T: Angry Peeler, The
R: jig
M: 6/8
K: Gmajor
A|:BAB GDD|B,DD EDD|G2G AGE|ABA AGA|
BAB GDD|B,DD EDD|G2G AGE|GAG G2:|
A|:B2A Bdd|ege dBA|G2G AGE|ABA AGA|
B2A Bdd|ege dBA|G2G AGE|GAG G2:|

